src/pages/Main/ui/Program/ScheduleItem/images/event.svg

<svg fill="none" height="25" viewBox="0 0 23 25" width="23" xmlns="http://www.w3.org/2000/svg"><g fill="#fff"><path d="m19.9035 24.499h-16.80698c-1.70727 0-3.09652-1.3359-3.09652-2.9776v-14.04484c0-1.64168 1.38925-2.97656 3.09652-2.97656h2.7084c.17366 0 .31384.1348.31384.30178 0 .16699-.14018.30178-.31384.30178h-2.7084c-1.36101 0-2.468848 1.06428-2.468848 2.373v14.04584c0 1.3088 1.106798 2.374 2.468848 2.374h16.80698c1.361 0 2.4688-1.0642 2.4688-2.374v-14.04584c0-1.30872-1.1068-2.373-2.4688-2.373h-2.7084c-.1737 0-.3139-.13479-.3139-.30178 0-.16698.1402-.30178.3139-.30178h2.7084c1.7073 0 3.0965 1.33588 3.0965 2.97656v14.04584c0 1.6417-1.3892 2.9776-3.0965 2.9776z"/><path d="m14.0266 6.5h-5.05323c-1.08867 0-1.97337-.78266-1.97337-1.74324v-2.51352c0-.96171.88598-1.74324 1.97337-1.74324h5.05323c1.0887 0 1.9734.78266 1.9734 1.74324v2.51239c0 .96171-.886 1.74324-1.9734 1.74324zm-5.05323-5.32432c-.66671 0-1.2085.4786-1.2085 1.06756v2.51239c0 .58896.54179 1.06757 1.2085 1.06757h5.05323c.6667 0 1.2085-.47861 1.2085-1.06757v-2.51239c0-.58896-.5418-1.06756-1.2085-1.06756z"/><path d="m4.95041 11.4992c-.06694 0-.13388-.0258-.18264-.0758l-.70247-.7215c-.09256-.0953-.08594-.2438.01488-.3314.10082-.0875.25785-.0813.35041.0141l.53635.5511 1.61897-1.37574c.10165-.08676.25867-.07816.35041.01798.09173.09614.08347.24465-.01901.33142l-1.80079 1.53044c-.0471.0399-.10661.0602-.16528.0602z"/><path d="m4.95041 16.4988c-.06694 0-.13388-.0387-.18264-.1137l-.70247-1.0822c-.09256-.143-.08594-.3658.01488-.4971s.25785-.1219.35041.0211l.53635.8266 1.61897-2.0636c.10165-.1301.25867-.1172.35041.027.09173.1442.08347.367-.01901.4971l-1.80079 2.2957c-.0471.0598-.10661.0903-.16528.0903z"/><path d="m4.95041 20.5c-.06694 0-.13388-.0387-.18264-.1137l-.70247-1.0832c-.09256-.143-.08594-.3658.01488-.4971s.25785-.1219.35041.0211l.53635.8265 1.61897-2.0633c.10165-.1301.25867-.1184.35041.027.09173.1442.08347.3669-.01901.4971l-1.80079 2.2953c-.0471.0598-.10661.0903-.16528.0903z"/><path d="m18.6612 11.5h-8.3224c-.1875 0-.3388-.2233-.3388-.5s.1513-.5.3388-.5h8.3224c.1875 0 .3388.2233.3388.5s-.1513.5-.3388.5z"/><path d="m18.6612 16.5h-8.3224c-.1875 0-.3388-.2233-.3388-.5s.1513-.5.3388-.5h8.3224c.1875 0 .3388.2233.3388.5s-.1513.5-.3388.5z"/><path d="m18.6612 20.5h-8.3224c-.1875 0-.3388-.2233-.3388-.5s.1513-.5.3388-.5h8.3224c.1875 0 .3388.2233.3388.5s-.1513.5-.3388.5z"/></g></svg>

<svg width="23" height="25" viewBox="0 0 23 25" fill="none" xmlns="http://www.w3.org/2000/svg">
    <path d="M19.9035 24.499H3.09652C1.38925 24.499 0 23.1631 0 21.5214V7.47656C0 5.83488 1.38925 4.5 3.09652 4.5H5.80492C5.97858 4.5 6.11876 4.6348 6.11876 4.80178C6.11876 4.96877 5.97858 5.10356 5.80492 5.10356H3.09652C1.73551 5.10356 0.627672 6.16784 0.627672 7.47656V21.5224C0.627672 22.8312 1.73447 23.8964 3.09652 23.8964H19.9035C21.2645 23.8964 22.3723 22.8322 22.3723 21.5224V7.47656C22.3723 6.16784 21.2655 5.10356 19.9035 5.10356H17.1951C17.0214 5.10356 16.8812 4.96877 16.8812 4.80178C16.8812 4.6348 17.0214 4.5 17.1951 4.5H19.9035C21.6108 4.5 23 5.83588 23 7.47656V21.5224C23 23.1641 21.6108 24.5 19.9035 24.5V24.499Z" fill="white"/>
    <path d="M14.0266 6.5H8.97337C7.8847 6.5 7 5.71734 7 4.75676V2.24324C7 1.28153 7.88598 0.5 8.97337 0.5H14.0266C15.1153 0.5 16 1.28266 16 2.24324V4.75563C16 5.71734 15.114 6.49887 14.0266 6.49887V6.5ZM8.97337 1.17568C8.30666 1.17568 7.76487 1.65428 7.76487 2.24324V4.75563C7.76487 5.34459 8.30666 5.8232 8.97337 5.8232H14.0266C14.6933 5.8232 15.2351 5.34459 15.2351 4.75563V2.24324C15.2351 1.65428 14.6933 1.17568 14.0266 1.17568H8.97337Z" fill="white"/>
    <path d="M4.95041 11.4992C4.88347 11.4992 4.81653 11.4734 4.76777 11.4234L4.0653 10.7019C3.97274 10.6066 3.97936 10.4581 4.08018 10.3705C4.181 10.283 4.33803 10.2892 4.43059 10.3846L4.96694 10.9357L6.58591 9.55996C6.68756 9.4732 6.84458 9.4818 6.93632 9.57794C7.02805 9.67408 7.01979 9.82259 6.91731 9.90936L5.11652 11.4398C5.06942 11.4797 5.00991 11.5 4.95124 11.5L4.95041 11.4992Z" fill="white"/>
    <path d="M4.95041 16.4988C4.88347 16.4988 4.81653 16.4601 4.76777 16.3851L4.0653 15.3029C3.97274 15.1599 3.97936 14.9371 4.08018 14.8058C4.181 14.6745 4.33803 14.6839 4.43059 14.8269L4.96694 15.6535L6.58591 13.5899C6.68756 13.4598 6.84458 13.4727 6.93632 13.6169C7.02805 13.7611 7.01979 13.9839 6.91731 14.114L5.11652 16.4097C5.06942 16.4695 5.00991 16.5 4.95124 16.5L4.95041 16.4988Z" fill="white"/>
    <path d="M4.95041 20.5C4.88347 20.5 4.81653 20.4613 4.76777 20.3863L4.0653 19.3031C3.97274 19.1601 3.97936 18.9373 4.08018 18.806C4.181 18.6747 4.33803 18.6841 4.43059 18.8271L4.96694 19.6536L6.58591 17.5903C6.68756 17.4602 6.84458 17.4719 6.93632 17.6173C7.02805 17.7615 7.01979 17.9842 6.91731 18.1144L5.11652 20.4097C5.06942 20.4695 5.00991 20.5 4.95124 20.5H4.95041Z" fill="white"/>
    <path d="M18.6612 11.5H10.3388C10.1513 11.5 10 11.2767 10 11C10 10.7233 10.1513 10.5 10.3388 10.5H18.6612C18.8487 10.5 19 10.7233 19 11C19 11.2767 18.8487 11.5 18.6612 11.5Z" fill="white"/>
    <path d="M18.6612 16.5H10.3388C10.1513 16.5 10 16.2767 10 16C10 15.7233 10.1513 15.5 10.3388 15.5H18.6612C18.8487 15.5 19 15.7233 19 16C19 16.2767 18.8487 16.5 18.6612 16.5Z" fill="white"/>
    <path d="M18.6612 20.5H10.3388C10.1513 20.5 10 20.2767 10 20C10 19.7233 10.1513 19.5 10.3388 19.5H18.6612C18.8487 19.5 19 19.7233 19 20C19 20.2767 18.8487 20.5 18.6612 20.5Z" fill="white"/>
</svg>
